X:191 
T:Sporting Nell (reel) 
B:CRE3.194 (Neil SpÃÂÃÂÃÂÃÂ³rtÃÂÃÂÃÂÃÂºil)
F:file ID: cre.3/191sport_n
R:reel
L:1/8
Q:180
M:C
K:G
"D modal"
AD (3FED A2dB|ABAG EFGB|AD (3FED A2dB|ABGF EDDB|
AD (3FED A2dB|ABAG EFGB|AD (3FED A2dB|A2GF EDD2||
cdec d3B|cdef gedB|cdec d2dB|cAGF EDD2|
cdec d3B|cdef gedf|eaag efed|cAGF EDD2||X:057 

%%%

